X:49
T:Rouli, Roulon, Roulette
M:2/4
L:1/8
N:Anim
N:La Bourre 4th edition 1929, page 57
Z:Steve Mansfield www.lesession.co.uk May 2012
K:Gm
d e d c2 B | c3 d3 | d e d c2 B |
c3 !fermata! d3 - | d zz G3 ||[M:2/4] A d c d ||[M:6/8] A2 B c B A |
G3 F3 - | F2 z G3 ||[M:2/4] A d c d ||[M:6/8] A2 B c B A | !fermata! G6 |]
<end>
<start>
